assets/img/braze_icons/toggle-02-left.svg

<svg fill="none" height="24" viewBox="0 0 24 24" width="24" xmlns="http://www.w3.org/2000/svg"><path clip-rule="evenodd" d="m7 6c-3.31371 0-6 2.68629-6 6 0 3.3137 2.68629 6 6 6 1.22674 0 2.36749-.3682 3.3178-1h7.6822c2.7614 0 5-2.2386 5-5 0-2.76142-2.2386-5-5-5h-7.6822c-.95031-.63185-2.09106-1-3.3178-1zm5.1973 3c.5105.88252.8027 1.9071.8027 3s-.2922 2.1175-.8027 3h5.8027c1.6569 0 3-1.3431 3-3s-1.3431-3-3-3z" fill="#801ed7" fill-rule="evenodd"/></svg>

<svg width="24" height="24" viewBox="0 0 24 24" fill="none" xmlns="http://www.w3.org/2000/svg">
<path fill-rule="evenodd" clip-rule="evenodd" d="M7 6C3.68629 6 1 8.68629 1 12C1 15.3137 3.68629 18 7 18C8.22674 18 9.36749 17.6318 10.3178 17H18C20.7614 17 23 14.7614 23 12C23 9.23858 20.7614 7 18 7H10.3178C9.36749 6.36815 8.22674 6 7 6ZM12.1973 9C12.7078 9.88252 13 10.9071 13 12C13 13.0929 12.7078 14.1175 12.1973 15H18C19.6569 15 21 13.6569 21 12C21 10.3431 19.6569 9 18 9H12.1973Z" fill="#801ED7"/>
</svg>
